svgs/duotone-light/flower.svg

<svg xmlns="http://www.w3.org/2000/svg" viewBox="0 0 448 512"><!--! Font Awesome Pro 7.1.0 by @fontawesome - https://fontawesome.com License - https://fontawesome.com/license (Commercial License) Copyright 2025 Fonticons, Inc. --><path opacity=".4" fill="currentColor" d="M32 168c0 25.7 9.3 49.1 24.7 67.3 10.1 11.9 10.1 29.5 0 41.4-15.4 18.2-24.7 41.6-24.7 67.3 0 57.4 46.6 104 104 104 25.7 0 49.1-9.3 67.3-24.7 11.9-10.1 29.5-10.1 41.4 0 18.2 15.4 41.6 24.7 67.3 24.7 57.4 0 104-46.6 104-104 0-25.7-9.3-49.1-24.7-67.3-10.1-11.9-10.1-29.5 0-41.4 15.4-18.2 24.7-41.6 24.7-67.3 0-57.4-46.6-104-104-104-25.7 0-49.1 9.3-67.3 24.7-11.9 10.1-29.5 10.1-41.4 0-18.2-15.4-41.6-24.7-67.3-24.7-57.4 0-104 46.6-104 104zm272 88a80 80 0 1 1 -160 0 80 80 0 1 1 160 0z"/><path fill="currentColor" d="M448 168c0 33.6-12.2 64.3-32.3 88 20.1 23.7 32.3 54.4 32.3 88 0 75.1-60.9 136-136 136-33.6 0-64.3-12.2-88-32.3-23.7 20.1-54.4 32.3-88 32.3-75.1 0-136-60.9-136-136 0-33.6 12.2-64.3 32.3-88-20.1-23.7-32.3-54.4-32.3-88 0-75.1 60.9-136 136-136 33.6 0 64.3 12.2 88 32.3 23.7-20.1 54.4-32.3 88-32.3 75.1 0 136 60.9 136 136zM203.3 88.7c-18.2-15.4-41.6-24.7-67.3-24.7-57.4 0-104 46.6-104 104 0 25.7 9.3 49.1 24.7 67.3 10.1 11.9 10.1 29.5 0 41.4-15.4 18.2-24.7 41.6-24.7 67.3 0 57.4 46.6 104 104 104 25.7 0 49.1-9.3 67.3-24.7 11.9-10.1 29.5-10.1 41.4 0 18.2 15.4 41.6 24.7 67.3 24.7 57.4 0 104-46.6 104-104 0-25.7-9.3-49.1-24.7-67.3-10.1-11.9-10.1-29.5 0-41.4 15.4-18.2 24.7-41.6 24.7-67.3 0-57.4-46.6-104-104-104-25.7 0-49.1 9.3-67.3 24.7-11.9 10.1-29.5 10.1-41.4 0zM272 256a48 48 0 1 0 -96 0 48 48 0 1 0 96 0zm-128 0a80 80 0 1 1 160 0 80 80 0 1 1 -160 0z"/></svg>

<svg xmlns="http://www.w3.org/2000/svg" viewBox="0 0 448 512"><!--! Font Awesome Pro 6.7.2 by @fontawesome - https://fontawesome.com License - https://fontawesome.com/license (Commercial License) Copyright 2024 Fonticons, Inc. --><defs><style>.fa-secondary{opacity:.4}</style></defs><path class="fa-secondary" d="M32 168c0 25.7 9.3 49.1 24.7 67.3c10.1 11.9 10.1 29.5 0 41.4C41.3 294.9 32 318.3 32 344c0 57.4 46.6 104 104 104c25.7 0 49.1-9.3 67.3-24.7c11.9-10.1 29.5-10.1 41.4 0C262.9 438.7 286.3 448 312 448c57.4 0 104-46.6 104-104c0-25.7-9.3-49.1-24.7-67.3c-10.1-11.9-10.1-29.5 0-41.4C406.7 217.1 416 193.7 416 168c0-57.4-46.6-104-104-104c-25.7 0-49.1 9.3-67.3 24.7c-11.9 10.1-29.5 10.1-41.4 0C185.1 73.3 161.7 64 136 64C78.6 64 32 110.6 32 168zm272 88a80 80 0 1 1 -160 0 80 80 0 1 1 160 0z"/><path class="fa-primary" d="M448 168c0 33.6-12.2 64.3-32.3 88c20.1 23.7 32.3 54.4 32.3 88c0 75.1-60.9 136-136 136c-33.6 0-64.3-12.2-88-32.3c-23.7 20.1-54.4 32.3-88 32.3C60.9 480 0 419.1 0 344c0-33.6 12.2-64.3 32.3-88C12.2 232.3 0 201.6 0 168C0 92.9 60.9 32 136 32c33.6 0 64.3 12.2 88 32.3C247.7 44.2 278.4 32 312 32c75.1 0 136 60.9 136 136zM203.3 88.7C185.1 73.3 161.7 64 136 64C78.6 64 32 110.6 32 168c0 25.7 9.3 49.1 24.7 67.3c10.1 11.9 10.1 29.5 0 41.4C41.3 294.9 32 318.3 32 344c0 57.4 46.6 104 104 104c25.7 0 49.1-9.3 67.3-24.7c11.9-10.1 29.5-10.1 41.4 0C262.9 438.7 286.3 448 312 448c57.4 0 104-46.6 104-104c0-25.7-9.3-49.1-24.7-67.3c-10.1-11.9-10.1-29.5 0-41.4C406.7 217.1 416 193.7 416 168c0-57.4-46.6-104-104-104c-25.7 0-49.1 9.3-67.3 24.7c-11.9 10.1-29.5 10.1-41.4 0zM272 256a48 48 0 1 0 -96 0 48 48 0 1 0 96 0zm-128 0a80 80 0 1 1 160 0 80 80 0 1 1 -160 0z"/></svg>
